korla/apps/scalable/openbazaar2.svg

<svg width="48" height="48" xmlns="http://www.w3.org/2000/svg">
 <g transform="translate(0 -1004.3622)" fill-rule="evenodd">
  <path d="m16.349 1049.3622 7.651-16 7.646 16h3.338757c4.015244 0 4.015244-13 5.015242-16h-31.9999989c.9999999 3 .9547127 15.9947 4.9954269 16z" opacity=".2"/>
  <path transform="matrix(2.0453091 0 0 2.0727643 7.477239 1033.3622)" d="m11.5 6.75h-6.84l3.42-6.75z" opacity=".2"/>
  <g transform="translate(0 1004.3622)">
   <path d="m23.964844 4c-.05772.1191-.126052.2480875-.195313.3671875-.049383.0955647-.11698.2076097-.167969.3046875-.353246.5945657-1.426706 2.3369098-3.574218 3.6914062-2.559917 1.5018001-6.158423 2.5487658-9.033203 2.5097658 0 0-4.7203698 13.145112-4.9082035 13.566406-.0282564.018762-.0577788.042028-.0859375.060547h.0644531c-.001923.004006-.064155.178292-.0644531.177734l.0117188.042969h.0117187c.1014635-.067375.2077919-.149773.3105469-.220703h35.5039066c.053201.034398.109257.075927.162109.109375v-.019531l-.033203-.089844h.033203c-.014055-.008949-.028889-.020285-.042969-.029297l-4.939453-13.599609c-2.730264.053-5.862796-.79246-7.890625-1.8808596-2.342877-1.2843708-3.88574-3.0369696-4.511719-4.0546875-.014614-.0287778-.034361-.0631637-.048828-.0917969-.127004-.2599-.253853-.5184781-.380859-.7675781-.08082-.022-.151429-.0551719-.220703-.0761719z" fill="#048eea"/>
   <path d="m23.964844 4c-.05772.1191-.126052.2480875-.195313.3671875-.049383.0955647-.11698.2076097-.167969.3046875-.353246.5945657-1.426706 2.3369098-3.574218 3.6914062-2.559917 1.5018001-6.158423 2.5487658-9.033203 2.5097658 0 0-4.7203698 13.145112-4.9082035 13.566406-.0282564.018762-.0577788.042028-.0859375.060547h.0644531c-.001923.004006-.064155.178292-.0644531.177734l.0117188.042969h.0117187c.1014635-.067375.2077919-.149773.3105469-.220703h35.5039066c.053201.034398.109257.075927.162109.109375v-.019531l-.033203-.089844h.033203c-.014055-.008949-.028889-.020285-.042969-.029297l-4.939453-13.599609c-2.730264.053-5.862796-.79246-7.890625-1.8808596-2.342877-1.2843708-3.88574-3.0369696-4.511719-4.0546875-.014614-.0287778-.034361-.0631637-.048828-.0917969-.127004-.2599-.253853-.5184781-.380859-.7675781-.08082-.022-.151429-.0551719-.220703-.0761719z" opacity=".3"/>
   <path d="m23.964844 4c-.05772.1191-.126052.2480875-.195313.3671875-.049383.0955647-.116979.2076097-.167969.3046875-.353246.5945657-1.426706 2.3369099-3.574218 3.6914062-2.559917 1.5018002-6.158423 2.5487658-9.033203 2.5097658 0 0-4.7203698 13.145112-4.9082035 13.566406-.0282564.018762-.0577788.042028-.0859375.060547h.0644531c-.001923.004006-.064155.178292-.0644531.177734l.0117188.042969h.0117187c.1014635-.067375.2077919-.149773.3105469-.220703h.0917968c.7177941-1.916837 4.5683598-12.626953 4.5683598-12.626953 2.87478.039 6.473286-1.007966 9.033203-2.5097658 2.147512-1.3545 3.220973-3.0969062 3.574218-3.6914062.050989-.0971.118589-.2086875.167969-.3046875.069261-.1191.137593-.2480875.195313-.3671875.069274.021.139883.0541719.220703.0761719.127006.2491.253855.5076781.380859.7675781.01447.029.034218.0627969.048828.0917969.625979 1.0178 2.168842 2.7703875 4.511719 4.0546875 2.027829 1.0883996 5.160361 1.9338596 7.890625 1.8808596l4.585938 12.628906h.234375c.053201.034398.109257.075927.162109.109375v-.019531l-.033203-.089844h.033203c-.014055-.008949-.028889-.020285-.042969-.029297l-4.939453-13.599609c-2.730264.053-5.862796-.79246-7.890625-1.8808596-2.342877-1.2843708-3.88574-3.0369696-4.511719-4.0546875-.014614-.0287778-.034361-.0631637-.048828-.0917969-.127004-.2599-.253853-.5184781-.380859-.7675781-.08082-.022-.151429-.0551719-.220703-.0761719z" fill="#fff" opacity=".1"/>
  </g>
  <path transform="matrix(2.0453091 0 0 2.0727643 7.477239 1032.3622)" d="m8.08 0 3.42 6.75h-6.84z" fill="#315165"/>
  <path transform="matrix(1.9793958 0 0 2.0250506 8 1032.3622)" d="m4.2179537 7.9010367 3.8653209-7.9010367 3.8627954 7.9010369h1.686755c2.02852 2e-7 2.02852-6.4195924 2.533724-7.9010369h-16.166549c0.50520462 1.4814445 0.48232533 7.8984119 2.5237129 7.9010366z" fill="#048eea"/>
  <path d="m16.384649 1049.3622-4.345199-6.6874c-.06927-.1066-.04504-.2537.05482-.329 0 0 4.06331-3.066 6.094963-4.5991.261022-.1969 5.810769-4.3845 5.810769-4.3845l-7.615347 16z" opacity=".2"/>
  <path d="m6.78125 1029.3622a.78170349.77087026 0 0 0 -.7578125.9551l.4570313 1.8418.1542968.6152a.78170349.77087026 0 0 0 .7578125.5879h.6542969a.78170349.77087026 0 0 0 .00195 0l9.8906249-.014a.78170349.77087026 0 0 0 .03516 0h1.179688a.78170349.77087026 0 0 0 .109375.01h.697266 4.039062 4.039062.697266a.78170349.77087026 0 0 0 .109375-.01h1.179688a.78170349.77087026 0 0 0 .03516 0l9.890625.014a.78170349.77087026 0 0 1 .002 0h.654297a.78170349.77087026 0 0 0 .757812-.5879l.154297-.6152.457031-1.8418a.78170349.77087026 0 0 0 -.757812-.9551h-12-10.4375-12z" opacity=".1"/>
  <path d="m16.384649 1048.3622-4.345199-6.6874c-.06927-.1066-.04504-.2537.05482-.329 0 0 4.06331-3.066 6.094963-4.5991.261022-.1969 5.810769-4.3845 5.810769-4.3845l-7.615347 16z" fill="#fff"/>
  <path d="m42.000002 1028.8622c-2.840283-1.8085-6.188584-4.8964-9.652343-8.578-3.775497-4.0066-6.211674-7.9698-7.781912-11.0776-.127004-.2599-.254008-.5197-.381014-.7688-.08082-.022-.150097-.055-.219371-.076-.05772.1191-.12701.2491-.196271.3682-1.639511 3.1727-4.156511 7.19-7.978191 11.2942-3.475305 3.7357-6.8928883 6.9321-9.7909 8.838" fill="#048eea"/>
  <path transform="translate(0 1004.3622)" d="m23.964844 4c-.05772.1191-.126052.2480875-.195313.3671875-1.639511 3.1727-4.156835 7.1907215-7.978515 11.2949215-3.475305 3.7357-6.8930043 6.931991-9.791016 8.837891h1.4042969c2.5711016-1.932682 5.4568201-4.688463 8.3867191-7.837891 3.82168-4.1042 6.339004-8.1222215 7.978515-11.2949215.069261-.1191.137593-.2480875.195313-.3671875.069274.021.139883.0541719.220703.0761719.127006.2491.253855.5076781.380859.7675781 1.570238 3.1078 4.005753 7.071525 7.78125 11.078125 2.896271 3.078422 5.707569 5.730773 8.212891 7.578125h1.439453c-2.840283-1.8085-6.188585-4.896525-9.652344-8.578125-3.775497-4.0066-6.211012-7.970325-7.78125-11.078125-.127004-.2599-.253853-.5184781-.380859-.7675781-.08082-.022-.151429-.0551719-.220703-.0761719z" fill="#fff" opacity=".1"/>
  <path transform="translate(0 1004.3622)" d="m6.78125 24a.78170349.77087026 0 0 0 -.7578125.955078l.4570313 1.841797.1542968.615234a.78170349.77087026 0 0 0 .7578125.587891h.6542969a.78170349.77087026 0 0 0 .0019531 0l9.8906249-.013672a.78170349.77087026 0 0 0 .035156 0l1.179688.001953a.78170349.77087026 0 0 0 .109375.007813h.697266l4.039062-.003906 4.039062.003906h.697266a.78170349.77087026 0 0 0 .109375-.007813l1.179688-.001953a.78170349.77087026 0 0 0 .035156 0l9.890625.013672a.78170349.77087026 0 0 1 .001953 0h.654297a.78170349.77087026 0 0 0 .757812-.587891l.154297-.615234.457031-1.841797a.78170349.77087026 0 0 0 -.757812-.955078h-12-10.4375z" fill="#0364a4"/>
  <path d="m31.615353 1049.3622 4.345199-6.6874c.06927-.1066.04504-.2537-.05482-.329 0 0-4.06331-3.066-6.094963-4.5991-.261022-.1969-5.810769-4.3845-5.810769-4.3845l7.615347 16z" opacity=".2"/>
  <path d="m31.615353 1048.3622 4.345199-6.6874c.06927-.1066.04504-.2537-.05482-.329 0 0-4.06331-3.066-6.094963-4.5991-.261022-.1969-5.810769-4.3845-5.810769-4.3845l7.615347 16z" fill="#fff"/>
 </g>
</svg>

<svg xmlns="http://www.w3.org/2000/svg" xmlns:xlink="http://www.w3.org/1999/xlink" width="48" height="48" version="1.1">
 <g transform="translate(0,-1004.3622)">
  <path style="opacity:0.2;fill-rule:evenodd" d="m 16.349,1049.3622 7.651,-16 7.646,16 3.338757,0 c 4.015244,0 4.015244,-13 5.015242,-16 l -31.9999989,0 c 0.9999999,3 0.9547127,15.9947 4.9954269,16 z"/>
  <polygon style="opacity:0.2;fill-rule:evenodd" transform="matrix(2.0453091,0,0,2.0727643,7.4772392,1033.3622)" points="11.5 6.75 4.66 6.75 8.08 0"/>
  <path style="fill:#048eea;fill-rule:evenodd" transform="translate(0,1004.3622)" d="M 23.964844 4 C 23.907124 4.1191 23.838792 4.2480875 23.769531 4.3671875 C 23.720148 4.4627522 23.652551 4.5747972 23.601562 4.671875 C 23.248316 5.2664407 22.174856 7.0087848 20.027344 8.3632812 C 17.467427 9.8650813 13.868921 10.912047 10.994141 10.873047 C 10.994141 10.873047 6.2737712 24.018159 6.0859375 24.439453 C 6.0576811 24.458215 6.0281587 24.481481 6 24.5 L 6.0644531 24.5 C 6.0625301 24.504006 6.0002981 24.678292 6 24.677734 L 6.0117188 24.720703 L 6.0234375 24.720703 C 6.124901 24.653328 6.2312294 24.57093 6.3339844 24.5 L 41.837891 24.5 C 41.891092 24.534398 41.947148 24.575927 42 24.609375 L 42 24.589844 L 41.966797 24.5 L 42 24.5 C 41.985945 24.491051 41.971111 24.479715 41.957031 24.470703 L 37.017578 10.871094 C 34.287314 10.924094 31.154782 10.078634 29.126953 8.9902344 C 26.784076 7.7058636 25.241213 5.9532648 24.615234 4.9355469 C 24.60062 4.9067691 24.580873 4.8723832 24.566406 4.84375 C 24.439402 4.58385 24.312553 4.3252719 24.185547 4.0761719 C 24.104727 4.0541719 24.034118 4.021 23.964844 4 z"/>
  <path style="fill-rule:evenodd;opacity:0.3" transform="translate(0,1004.3622)" d="M 23.964844 4 C 23.907124 4.1191 23.838792 4.2480875 23.769531 4.3671875 C 23.720148 4.4627522 23.652551 4.5747972 23.601562 4.671875 C 23.248316 5.2664407 22.174856 7.0087848 20.027344 8.3632812 C 17.467427 9.8650813 13.868921 10.912047 10.994141 10.873047 C 10.994141 10.873047 6.2737712 24.018159 6.0859375 24.439453 C 6.0576811 24.458215 6.0281587 24.481481 6 24.5 L 6.0644531 24.5 C 6.0625301 24.504006 6.0002981 24.678292 6 24.677734 L 6.0117188 24.720703 L 6.0234375 24.720703 C 6.124901 24.653328 6.2312294 24.57093 6.3339844 24.5 L 41.837891 24.5 C 41.891092 24.534398 41.947148 24.575927 42 24.609375 L 42 24.589844 L 41.966797 24.5 L 42 24.5 C 41.985945 24.491051 41.971111 24.479715 41.957031 24.470703 L 37.017578 10.871094 C 34.287314 10.924094 31.154782 10.078634 29.126953 8.9902344 C 26.784076 7.7058636 25.241213 5.9532648 24.615234 4.9355469 C 24.60062 4.9067691 24.580873 4.8723832 24.566406 4.84375 C 24.439402 4.58385 24.312553 4.3252719 24.185547 4.0761719 C 24.104727 4.0541719 24.034118 4.021 23.964844 4 z"/>
  <path style="fill:#ffffff;fill-rule:evenodd;opacity:0.1" transform="translate(0,1004.3622)" d="M 23.964844 4 C 23.907124 4.1191 23.838792 4.2480875 23.769531 4.3671875 C 23.720148 4.4627522 23.652552 4.5747972 23.601562 4.671875 C 23.248316 5.2664407 22.174856 7.0087849 20.027344 8.3632812 C 17.467427 9.8650814 13.868921 10.912047 10.994141 10.873047 C 10.994141 10.873047 6.2737712 24.018159 6.0859375 24.439453 C 6.0576811 24.458215 6.0281587 24.481481 6 24.5 L 6.0644531 24.5 C 6.0625301 24.504006 6.0002981 24.678292 6 24.677734 L 6.0117188 24.720703 L 6.0234375 24.720703 C 6.124901 24.653328 6.2312294 24.57093 6.3339844 24.5 L 6.4257812 24.5 C 7.1435753 22.583163 10.994141 11.873047 10.994141 11.873047 C 13.868921 11.912047 17.467427 10.865081 20.027344 9.3632812 C 22.174856 8.0087812 23.248317 6.266375 23.601562 5.671875 C 23.652551 5.574775 23.720151 5.4631875 23.769531 5.3671875 C 23.838792 5.2480875 23.907124 5.1191 23.964844 5 C 24.034118 5.021 24.104727 5.0541719 24.185547 5.0761719 C 24.312553 5.3252719 24.439402 5.58385 24.566406 5.84375 C 24.580876 5.87275 24.600624 5.9065469 24.615234 5.9355469 C 25.241213 6.9533469 26.784076 8.7059344 29.126953 9.9902344 C 31.154782 11.078634 34.287314 11.924094 37.017578 11.871094 L 41.603516 24.5 L 41.837891 24.5 C 41.891092 24.534398 41.947148 24.575927 42 24.609375 L 42 24.589844 L 41.966797 24.5 L 42 24.5 C 41.985945 24.491051 41.971111 24.479715 41.957031 24.470703 L 37.017578 10.871094 C 34.287314 10.924094 31.154782 10.078634 29.126953 8.9902344 C 26.784076 7.7058636 25.241213 5.9532648 24.615234 4.9355469 C 24.60062 4.9067691 24.580873 4.8723832 24.566406 4.84375 C 24.439402 4.58385 24.312553 4.3252719 24.185547 4.0761719 C 24.104727 4.0541719 24.034118 4.021 23.964844 4 z"/>
  <polygon style="fill:#315165;fill-rule:evenodd" transform="matrix(2.0453091,0,0,2.0727643,7.4772392,1032.3622)" points="8.08 0 11.5 6.75 4.66 6.75"/>
  <g style="fill:none" transform="matrix(-1.9832395,0,0,1.9484438,52.491622,1032.9675)">
   <use width="100%" height="100%" x="0" y="0" xlink:href="#path-2"/>
   <use style="fill:#ffffff" width="100%" height="100%" x="0" y="0" xlink:href="#path-2"/>
  </g>
  <path style="fill:#048eea;fill-rule:evenodd" transform="matrix(1.9793958,0,0,2.0250506,8.0000001,1032.3622)" d="M 4.2179537,7.9010367 8.0832746,0 11.94607,7.9010369 l 1.686755,0 C 15.661345,7.9010371 15.661345,1.4814445 16.166549,0 L 0,0 c 0.50520462,1.4814445 0.48232533,7.8984119 2.5237129,7.9010366 z"/>
  <path style="opacity:0.2;fill-rule:evenodd" d="m 16.384649,1049.3622 -4.345199,-6.6874 c -0.06927,-0.1066 -0.04504,-0.2537 0.05482,-0.329 0,0 4.06331,-3.066 6.094963,-4.5991 0.261022,-0.1969 5.810769,-4.3845 5.810769,-4.3845 l -7.615347,16 0,0 z"/>
  <path style="opacity:0.1;fill-rule:evenodd" d="m 6.78125,1029.3622 a 0.78170349,0.77087026 0 0 0 -0.7578125,0.9551 l 0.4570313,1.8418 0.1542968,0.6152 a 0.78170349,0.77087026 0 0 0 0.7578125,0.5879 l 0.6542969,0 a 0.78170349,0.77087026 0 0 0 0.00195,0 l 9.8906249,-0.014 a 0.78170349,0.77087026 0 0 0 0.03516,0 l 1.179688,0 a 0.78170349,0.77087026 0 0 0 0.109375,0.01 l 0.697266,0 4.039062,-0 4.039062,0 0.697266,0 a 0.78170349,0.77087026 0 0 0 0.109375,-0.01 l 1.179688,-0 a 0.78170349,0.77087026 0 0 0 0.03516,0 l 9.890625,0.014 a 0.78170349,0.77087026 0 0 1 0.002,0 l 0.654297,0 a 0.78170349,0.77087026 0 0 0 0.757812,-0.5879 l 0.154297,-0.6152 0.457031,-1.8418 a 0.78170349,0.77087026 0 0 0 -0.757812,-0.9551 l -12,0 -10.4375,0 -12,0 z"/>
  <path style="fill:#ffffff;fill-rule:evenodd" d="m 16.384649,1048.3622 -4.345199,-6.6874 c -0.06927,-0.1066 -0.04504,-0.2537 0.05482,-0.329 0,0 4.06331,-3.066 6.094963,-4.5991 0.261022,-0.1969 5.810769,-4.3845 5.810769,-4.3845 l -7.615347,16 0,0 z"/>
  <path style="fill:#048eea;fill-rule:evenodd" d="m 42.000002,1028.8622 0,0 c -2.840283,-1.8085 -6.188584,-4.8964 -9.652343,-8.578 -3.775497,-4.0066 -6.211674,-7.9698 -7.781912,-11.0776 -0.127004,-0.2599 -0.254008,-0.5197 -0.381014,-0.7688 -0.08082,-0.022 -0.150097,-0.055 -0.219371,-0.076 -0.05772,0.1191 -0.12701,0.2491 -0.196271,0.3682 -1.639511,3.1727 -4.156511,7.19 -7.978191,11.2942 -3.475305,3.7357 -6.8928883,6.9321 -9.7909,8.838"/>
  <path style="fill:#ffffff;fill-rule:evenodd;opacity:0.1" transform="translate(0,1004.3622)" d="M 23.964844 4 C 23.907124 4.1191 23.838792 4.2480875 23.769531 4.3671875 C 22.13002 7.5398875 19.612696 11.557909 15.791016 15.662109 C 12.315711 19.397809 8.8980117 22.5941 6 24.5 L 7.4042969 24.5 C 9.9753985 22.567318 12.861117 19.811537 15.791016 16.662109 C 19.612696 12.557909 22.13002 8.5398875 23.769531 5.3671875 C 23.838792 5.2480875 23.907124 5.1191 23.964844 5 C 24.034118 5.021 24.104727 5.0541719 24.185547 5.0761719 C 24.312553 5.3252719 24.439402 5.58385 24.566406 5.84375 C 26.136644 8.95155 28.572159 12.915275 32.347656 16.921875 C 35.243927 20.000297 38.055225 22.652648 40.560547 24.5 L 42 24.5 C 39.159717 22.6915 35.811415 19.603475 32.347656 15.921875 C 28.572159 11.915275 26.136644 7.95155 24.566406 4.84375 C 24.439402 4.58385 24.312553 4.3252719 24.185547 4.0761719 C 24.104727 4.0541719 24.034118 4.021 23.964844 4 z"/>
  <path style="fill:#0364a4;fill-rule:evenodd" transform="translate(0,1004.3622)" d="M 6.78125 24 A 0.78170349 0.77087026 0 0 0 6.0234375 24.955078 L 6.4804688 26.796875 L 6.6347656 27.412109 A 0.78170349 0.77087026 0 0 0 7.3925781 28 L 8.046875 28 A 0.78170349 0.77087026 0 0 0 8.0488281 28 L 17.939453 27.986328 A 0.78170349 0.77087026 0 0 0 17.974609 27.986328 L 19.154297 27.988281 A 0.78170349 0.77087026 0 0 0 19.263672 27.996094 L 19.960938 27.996094 L 24 27.992188 L 28.039062 27.996094 L 28.736328 27.996094 A 0.78170349 0.77087026 0 0 0 28.845703 27.988281 L 30.025391 27.986328 A 0.78170349 0.77087026 0 0 0 30.060547 27.986328 L 39.951172 28 A 0.78170349 0.77087026 0 0 1 39.953125 28 L 40.607422 28 A 0.78170349 0.77087026 0 0 0 41.365234 27.412109 L 41.519531 26.796875 L 41.976562 24.955078 A 0.78170349 0.77087026 0 0 0 41.21875 24 L 29.21875 24 L 18.78125 24 L 6.78125 24 z"/>
  <path style="opacity:0.2;fill-rule:evenodd" d="m 31.615353,1049.3622 4.345199,-6.6874 c 0.06927,-0.1066 0.04504,-0.2537 -0.05482,-0.329 0,0 -4.06331,-3.066 -6.094963,-4.5991 C 29.549747,1037.5498 24,1033.3622 24,1033.3622 l 7.615347,16 0,0 z"/>
  <path style="fill:#ffffff;fill-rule:evenodd" d="m 31.615353,1048.3622 4.345199,-6.6874 c 0.06927,-0.1066 0.04504,-0.2537 -0.05482,-0.329 0,0 -4.06331,-3.066 -6.094963,-4.5991 C 29.549747,1036.5498 24,1032.3622 24,1032.3622 l 7.615347,16 0,0 z"/>
 </g>
</svg>
